!!!COM: Gabriel Faure/
!!!CNT: Francais
!!!TXO: Francais
!!!OTL: Mai
!!!OPS: Op. 1
!!!ONM: No. 2
!!!LYR: Victor Hugo
!!!ENC: Jacob Pegg
!!!YOR: Album of Twenty Songs (Vingt Me/lodies,) Volume I
!!!YOR: Edward B. Marks Music Corporation, RCA Building, 
!!!YOR: Radio City, New York 20, N.Y.
!!!ODT: 1862/
!!NB: Vocal melody and text only encoded.
!!NB: First instance of melodic material only encoded.
**kern	**silbe
*clef G2	*
*k[f#]	*
*M3/4	*
*MM[allegretto]	*
!!created: 8/19/03 18:43
!!proofed and posted: 8/19/03 22:09
!!edit time: 27 min.
=1	=1
4r	.
2r	.
=2	=2
2r	.
4r	.
=3	=3
{8b	{Puis
8b	que
4b	Mai
8a	tout
8g	en
=4	=4
2.dd	fleurs
=5	=5
4dd	dans
8cc	les
8b	pre/s
8a	nous
8g	re-
=6	=6
2b	-cla-
4a}	-me,}
=7	=7
{4g	{Viens,
8f#	ne
8e	te
8g	las-
8a	-se
=8	=8
2.b	pas
=9	=9
8b	de
8a	me\-
4g	-ler
8e	a\
8c#	ton
=10	=10
4g	a\-
2f#}	-me}
=11	=11
{8b	{La
8b	cam-
4b	-pa-
8a	-gne,
8g	les
=12	=12
2.dd}	bois,}
=13	=13
{8dd	{les
8cc	om-
4b	-bra-
8a	-ges
8g	char-
=14	=14
2.b}	-mants,}
=15	=15
{4a	{Les
8dd	lar-
8a	-ges
8g	clairs
8f#	de
=16	=16
4f#	lune
4f#	au
4f#	bord
=17	=17
4g	des
4.f#	flots
8e	dor-
=18	=18
2.d}	-mants;}
=19	=19
{8dd	{Le
8dd	sen-
4dd	-tier
8cc	qui
8b-	fi-
=20	=20
2.ffn}	-nit}
=21	=21
{4dd	{ou\
8dd	le
8dd	che-
8cc	-min
8b-	com-
=22	=22
2ffn	-men-
4ffn}	-ce}
=23	=23
{4ffn	{Et,
8cc	l'air
8a	et
8g	le
8fn	prin-
=24	=24
[2.a	-temps,
=25	=25
8a]}	|}
{8a	{et
8cc	l'ho-
8b	-ri-
8a	-zon
8g	im-
=26	=26
2a	-men-
4d}	-se,}
=27	=27
{8b	{L'ho-
8b	-ri-
4b	-zon
8a	que
8g	ce
=28	=28
2dd	monde
(8cc	at-
8b)	|
=29	=29
4.b	-tache
8b	hum-
8a	-ble et
8g	joy-
=30	=30
2dd}	-eux,}
{4dd	{Comme
=31	=31
8cc#	u-
8gg	-ne
4gg	le\-
(8ff#	-vre au
8ee)	|
=32	=32
2dd	bas
8b	de
8g	la
=33	=33
4e	ro-
4.d	-be
8d	des
=34	=34
2.d}	cieux.}
!! 36-59 repeat material
=60	=60
{4b	{Fas-
8b	-sent
8b	e/-
8a	-pa-
8g	-nou-
=61	=61
2dd	-ir
(8cc	com-
8b)	-me
=62	=62
4.b	u-
8b	-ne
8a	dou-
8g	-ble
=63	=63
2.dd}	fleur,}
=64	=64
{8cc#	{La
8gg	beau-
4gg	-te/
8ff#	sur
8ee	ton
=65	=65
2dd	front
8b	et
8g	l'a-
=66	=66
4b	-mour
4.b	dans
8a	ton
=67	=67
2.g}	coeur!}
*-	*-
